X:573
T: Die Schnitzelbank (272a), S. 578
N: T0461
O: Luxemburg
S: Singendes Volk, Esch-Alzette, 1937 posth.]
N: zwei getrennte Teile;
N: Esch-Alzette, hhh Dominik Mller, 7.6.1915
R: ???, erzhlendes Lied]
M: 2/4
L: 1/8
K: Bb
FF | B2AG | F2z2 |
GGGG | GBBG | F2FE | D2z
F | F2GA | B2z
F | F2GA | B2z2 |
e2ee | d2dd | c2cc | f2z2 |
e2ee | d2dd | c2cc | B2z2 |
B2AG | F2F2 | G2GG | F2z2 |
e2e2 | d2d2 | c2c2 | B2
BB | c2AA | B2
BB | c2A2 | B2z2 |
e2e2 | d2d2 | c2c2 | f2z2 |
e2e2 | d2d2 | c2c2 | B2

@@@ Tune index: 8627
